X: 1
T:Polka
R:Polka
M:2/4
O:France
K:G
B4B4|BABcd4 |1 c3B A2d2|B4G4 :|2 c3B A2F2|G8::\
A3B c2A2|F4D4|G3A B2c2|BABc B2G2|\
A3B c2A2|F4D2d2|1d2c2 B2c2|d8:|2d2c2 B2A2|G8:|
